X:1
L:1/4
T:Sisyphe in Montmartre
C:Khalil Chahine
M:4/4
K:F
[V:1]z3 A-|A2G F| A3-A/B/ | (3c/d/c/-c2 d | a  f d A | c B/A/-A2 | A>G B>D |
 FGA>B | c2 G3/4c///G/// F | GA/G/-G =B| c d/B/-B c/d/- | d4 | _e f/_d/-d e/f/- | 
f4 | z _d f _a | _ag c'>b | c'aec | b/b/ g/g/ d/d/ B/B/ | aec z | 
A G/F/- F2 | E>D F>A | AGAd | d^cde | fdAG | FEDE | FEFE | D4 |]
[V:2][A,,A,]4 | x4 | x4 |x4 |x4 |x4 |x4 |x4 |x3 z|x4 |x4 |x4 |x4 |x4 |x4 |x4 |x4 |x3z |x4 |x4 |x4 |x4 |
x3z | x4 |x4 |x4 |x4 |]
